(1001)
(Machine)
(  vendor: Autodesk)
(  description: VZ)
(T1  D=10 CR=0 - ZMIN=-12 - flat end mill)
G90 G94
G17
G21
G28 G91 Z0
G90

(2D Contour1)
T1 M6
S5000 M3
G54
M8
G0 X68.712 Y82
Z15
Z5
G1 Z3.5 F333.3
G19 G3 Y83 Z2.5 J1 K0 F1000
G1 Y84
G17 G2 X69.712 Y85 I1 J0
G1 X71 Z2.455 F333.3
G2 X85 Y71 Z1.687 I0 J-14
G1 Y31 Z0.29
G2 X71 Y17 Z-0.478 I-14 J0
G1 X31 Z-1.875
G2 X17 Y31 Z-2.642 I0 J14
G1 Y71 Z-4.039
G2 X31 Y85 Z-4.807 I14 J0
G1 X71 Z-6.204
G2 X85 Y71 Z-6.972 I0 J-14
G1 Y31 Z-8.369
G2 X71 Y17 Z-9.137 I-14 J0
G1 X60.599 Z-9.5
X41
Z-10.184
X31 Z-10.534
G2 X17 Y31 Z-11.302 I0 J14
G1 Y41 Z-11.651
Z-9.5
Y51
Y61 F1000
Z-12 F333.3
Y71 F1000
G2 X31 Y85 I14 J0
G1 X41
Z-9.5
X61
Z-12 F333.3
X71 F1000
G2 X85 Y71 I0 J-14
G1 Y61
Z-9.5
Y41
Z-12 F333.3
Y31 F1000
G2 X71 Y17 I-14 J0
G1 X61
Z-9.5
X41
Z-12 F333.3
X31 F1000
G2 X17 Y31 I0 J14
G1 Y41
Z-9.5
Y51
G3 X16.5 Y51.75 I-0.813 J0
G2 X16 Y52.5 I0.313 J0.75
G1 Y61
Z-12 F333.3
Y71 F1000
G2 X31 Y86 I15 J0
G1 X41
Z-9.5
X61
Z-12 F333.3
X71 F1000
G2 X86 Y71 I0 J-15
G1 Y61
Z-9.5
Y41
Z-12 F333.3
Y31 F1000
G2 X71 Y16 I-15 J0
G1 X61
Z-9.5
X41
Z-12 F333.3
X31 F1000
G2 X16 Y31 I0 J15
G1 Y41
Z-9.5
Y52.5
G2 X17 Y53.5 I1 J0
G1 X19
G0 Z5
X110 Y72.473
G1 Z3.5 F333.3
G18 G3 X109 Z2.5 I-1 K0 F1000
G1 X108
G17 G2 X107 Y73.473 I0 J1
G1 Y101 Z1.539 F333.3
G3 X101 Y107 Z1.21 I-6 J0
G1 X1 Z-2.282
G3 X-5 Y101 Z-2.612 I0 J-6
G1 Y1 Z-6.104
G3 X1 Y-5 Z-6.433 I6 J0
G1 X101 Z-9.925
G3 X107 Y1 Z-10.254 I0 J6
G1 Y16 Z-10.778
Z-9.5
Y36
Z-11.476
Y51 Z-12
Y66 F1000
Z-9.5
Y86
Z-12 F333.3
Y101 F1000
G3 X101 Y107 I-6 J0
G1 X86
Z-9.5
X66
Z-12 F333.3
X36 F1000
Z-9.5
X16
Z-12 F333.3
X1 F1000
G3 X-5 Y101 I0 J-6
G1 Y86
Z-9.5
Y66
Z-12 F333.3
Y36 F1000
Z-9.5
Y16
Z-12 F333.3
Y1 F1000
G3 X1 Y-5 I6 J0
G1 X16
Z-9.5
X36
Z-12 F333.3
X66 F1000
Z-9.5
X86
Z-12 F333.3
X101 F1000
G3 X107 Y1 I0 J6
G1 Y16
Z-9.5
Y36
Z-12 F333.3
Y51 F1000
G3 X106.5 Y51.75 I-0.813 J0
G2 X106 Y52.5 I0.313 J0.75
G1 Y66
Z-9.5
Y86
Z-12 F333.3
Y101 F1000
G3 X101 Y106 I-5 J0
G1 X86
Z-9.5
X66
Z-12 F333.3
X36 F1000
Z-9.5
X16
Z-12 F333.3
X1 F1000
G3 X-4 Y101 I0 J-5
G1 Y86
Z-9.5
Y66
Z-12 F333.3
Y36 F1000
Z-9.5
Y16
Z-12 F333.3
Y1 F1000
G3 X1 Y-4 I5 J0
G1 X16
Z-9.5
X36
Z-12 F333.3
X66 F1000
Z-9.5
X86
Z-12 F333.3
X101 F1000
G3 X106 Y1 I0 J5
G1 Y16
Z-9.5
Y36
Z-12 F333.3
Y52.5 F1000
G2 X107 Y53.5 I1 J0
G1 X108
G18 G2 X109 Z-11 I0 K1
G0 Z15
G17
M9
G28 G91 Z0
G90
G28 G91 X0 Y0
G90
M5
M30
